X:1
T:[ID 11-10c]
T:[ID 11-10c]
T:Bezeichnung standardisiert: Sonata Sonata
T:Urheber unbekannt Datum in der hier transkribierten schriftlichen Quelle: vermutlich um 1800
C:Urheber unbekannt
C:Datum in der hier transkribierten schriftlichen Quelle: vermutlich um 1800
L:1/8
M:2/4
K:D
V:1 treble 
V:1
 d2 f2 | e2 ag | f2 Te2{ef} | d3 e | fdba | ^g2{fg} ad | c2 B2{AB} | A4 :: e2 f2 | ecde | eagf | %11
 e3 A | d2 fd | ebag | f2 e2{ef} | d4 :| %16

